X: 4113
T: Sir George Mackenzie's    Reel
C: By Niel Gow
%R: reel
B: Niel Gow & Sons "A Fourth Collection of Strathspey Reels, etc." v.4 p.11 #3
Z: 2022 John Chambers <jc:trillian.mit.edu>
% The 2nd strain could be written as 4 bars repeated.
M: C|
L: 1/8
K: A
% - - - - - - - - - -
V: 1 staves=2
c |\
{f}e2cA ~d2fd | {f}e2cA dBBa | {f}Te2cA d3(=g | f)>ded cAA :| ^g | (f/g/a) ec e2eg | {fg}a2ec fBBg |
{g}a2ec e2-e>(=g | f)ded cAA^g || (f/g/a) ec e2eg | {fg}a2ec fBBg | {g}a2ec e2-e>(^g | f)ded cAA :|
% - - - - - - - - - -
% Voice 2 preserves the staff layout in the book.
V: 2 clef=bass middle=d
z |\
[a2A2][a2A2] [a2d2][a2d2] | [a2c2][a2A2] e2E2 | A2a2 d2d2 | d2e2 A2A :| z | a2a2 a2a2 | a2a2 b2b2 |
a2a2 A2c2 | d2e2 A2A2 || a2a2 a2a2 | a2a2 b2b2 | a2a2 A2c2 | d2e2 A2A |]


